!!!COM: Beethoven, Ludwig van
!!!CDT: 1770///-1827///
!!!OTL: Piano Sonata no. 14 in C-sharp minor
!!!OTP: moonlight
!!!ODT: 1801///
!!!ODE: Gr&auml;fin Giulietta Guicciardi
!!!OPS: 27
!!!ONM: 2
!!!OMV: 2
!!!OMD: Allegretto
**kern	**dynam	**kern	**dynam
*staff2	*	*staff1	*staff1
*Ipiano	*	*Ipiano	*Ipiano
*>[A,B,B,C,C,D,D,A,B]	*	*>[A,B,B,C,C,D,D,A,B]	*>[A,B,B,C,C,D,D,A,B]
*>norep[A,B,C,D,A,B]	*	*>norep[A,B,C,D,A,B]	*>norep[A,B,C,D,A,B]
*>A	*	*>A	*>A
*clefF4	*	*clefG2	*clefG2
*k[b-e-a-d-g-]	*	*k[b-e-a-d-g-]	*k[b-e-a-d-g-]
*D-:	*	*D-:	*D-:
*M3/4	*	*M3/4	*M3/4
*MM184	*	*MM184	*MM184
(4f\	.	4a-/ (4dd-/	p
=1	=1	=1	=1
2e-\	.	2a-/ 2cc/	.
4d-\	.	4gn/ 4b-/	.
=2	=2	=2	=2
4c'\)	.	4a-'\ 4ee-'\)	.
4r	.	4r	.
4D-'\ 4B-'\	.	4f'/ 4dd-'/	.
=3	=3	=3	=3
4E-'\ 4e-'\	.	4a-'/ 4cc'/	.
4r	.	4r	.
4E-'\ 4d-'\	.	4gn'/ 4b-'/	.
=4	=4	=4	=4
4A-'\ 4c'\	.	4a-'/	.
4r	.	4r	.
*clefG2	*	*	*
(4b-/	.	4dd-\ (4gg-X\	.
=5	=5	=5	=5
2a-/	.	2dd-\ 2ff\	.
4g-/	.	4cc\ 4ee-\	.
=6	=6	=6	=6
4f'/)	.	4dd-'\ 4aa-'\)	.
4r	.	4r	.
4G-'/ 4e-'/	.	4b-'\ 4gg-'\	.
=7	=7	=7	=7
4A-'/ 4a-'/	.	4dd-'\ 4ff'\	.
4r	.	4r	.
4A-'/ 4g-'/	.	4cc'\ 4ee-'\	.
=8	=8	=8	=8
4d-'/ 4f'/	.	4dd-\	.
4r	.	4r	.
*clefF4	*	*	*
4F\ (4A-\	.	[4d-/ [4dd-/	.
=9	=9	=9	=9
2E-\ 2A-\	.	(4d-/] 4dd-/]	.
.	.	4c/) 4cc/	.
4D-\ 4Gn\)	.	4B-/ [4b-/	.
=10	=10	=10	=10
*	*	*^	*
4C'\ 4c'\	.	(4b-/]	4e-\	.
4r	.	4ee-/)	4r	.
4D-'\ 4B-'\	.	[4dd-/	4f\	.
=11	=11	=11	=11	=11
4E-'\ 4e-'\	.	4dd-/]	4a-\	.
4r	.	4cc/	4r	.
4E-'\ 4d-'\	.	[4b-/	4gn\	.
*	*	*v	*v	*
=12	=12	=12	=12
4A-'\ 4c'\	.	(4b-/]	.
4r	.	4a-/)	.
4B-\ (4d-\	.	[4g-\ [4gg-\	.
=13	=13	=13	=13
2A-\ 2d-\	.	4g-\] 4gg-\]	.
.	.	4f\ 4ff\	.
4G-\ 4c\	.	4e-\ [4ee-\	.
=14	=14	=14	=14
*	*	*^	*
4F'\ 4f'\)	.	4ee-/]	4a-\	.
4r	.	4aa-/	4r	.
4G-'\ 4e-'\	.	[4gg-/	4b-\	.
=15	=15	=15	=15	=15
4A-'\ 4a-'\	.	(4gg-/]	4dd-\	.
4r	.	4ff/)	4r	.
4A-'\ 4g-'\	.	[4ee-/	4cc\	.
*	*	*v	*v	*
=16	=16	=16	=16
4d-'\ 4f'\	.	(4ee-\]	.
4r	.	4dd-\)	.
=!|:	=!|:	=!|:	=!|:
*>B	*	*>B	*>B
(4d-\	.	4f/ 4dd-/	p
=17	=17	=17	=17
2B-\	.	2f/ 2dd-/	.
4A-\	.	4f/ 4dd-/	.
=18	=18	=18	=18
*	*	*^	*
4Gn\	.	4dd-/	2e-\	.
4A-\)	.	4cc/	.	.
4A-\	.	4cc-/	4e-\	.
*	*	*v	*v	*
=19	=19	=19	=19
(2A-\	.	2e-/ 2cc-/	.
4G-\	.	4e-/ 4cc-/	.
=20	=20	=20	=20
*	*	*^	*
4F\	.	4cc-/	2d-\	.
4G-\)	.	4b-/	.	.
(4G-\	.	4b-/	4d-\	.
*	*	*v	*v	*
=21	=21	=21	=21
2E-\ 2A-\	.	2g-/ 2ccn/	.
4D-\ 4A-\	.	4f/ 4dd-/	.
=22	=22	=22	=22
2.C\) 2.A-\	.	2g-/ 2ee-/	.
.	.	[4e-/ [4g-/	.
=23	=23	=23	=23
2D-\ (2A-\	.	4e-/] (4g-/]	p
.	.	4d-/ 4f/	.
*^	*	*^	*
8G-/L	4GG-\	.	8b-/L	4B-\	.
8E-/J)	.	.	8g-/J)	.	.
*v	*v	*	*	*	*
*	*	*v	*v	*
=24	=24	=24	=24
2AA-\ 2A-\	.	(4d-/ 4f/	.
.	.	4c/) 4e-/	.
4F\ 4A-\	.	(4d-/ 4dd-/	.
=25	=25	=25	=25
2E-\ 2A-\	.	2c/ 2cc/	.
4D-\ 4Gn\	.	4B-/ 4b-/	.
=26	=26	=26	=26
4C'\ 4c'\	.	4e-'/) 4ee-'/	.
4r	.	4r	.
4D-'\ 4B-'\	.	4f/ [4dd-/	.
=27	=27	=27	=27
*	*	*^	*
4E-'\ 4e-'\	.	(4dd-/]	4a-\	.
4r	.	4cc/)	4r	.
4E-'\ 4d-'\	.	[4b-/	4gn\	.
*	*	*v	*v	*
=28	=28	=28	=28
4A-'\ 4c'\	.	(4b-/]	.
4r	.	4a-/)	.
4B-\ 4d-\	.	4g-\ (4gg-\	.
=29	=29	=29	=29
2A-\ 2d-\	.	2f\ 2ff\	.
4G-\ 4c\	.	4e-\ 4ee-\	.
=30	=30	=30	=30
4F'\ 4d-'\	.	4a-'\ 4aa-'\)	.
4r	.	4r	.
4B-\ (4d-\	.	[4g-\ [4gg-\	.
=31	=31	=31	=31
2A-\ 2d-\	.	4g-\] 4gg-\]	.
.	.	4f\ 4ff\	.
4G-\ 4c\	.	4e-'\ 4ee-'\	.
=32	=32	=32	=32
4F\ 4d-\)	.	4a-'\ 4aa-'\	.
4r	.	4r	.
4B-\ 4d-\	.	[4g-\ [4gg-\	.
=33	=33	=33	=33
2A-\ 2d-\	.	4g-\] (4gg-\]	.
.	.	4f\ 4ff\)	.
4Gn\ 4d-\ (4en\	.	[4b-\ [4bb-\	.
=34	=34	=34	=34
4A-\ 4d-\ 4f\)	.	4b-\] 4bb-\]	.
4r	.	4a-\ 4aa-\	.
4r	.	4r	.
=35	=35	=35	=35
*	*	*^	*
2.AAA-/ 2.AA-/	.	(2c/	2.G-\	p
.	.	8e-/L	.	.
.	.	8d-/J	.	.
*	*	*v	*v	*
=36	=36	=36	=36
*^	*	*	*
4F/	4DD-\ 4AA-\	.	4d-/)	.
*v	*v	*	*	*
4r	.	4r	.
=:|!|:	=:|!|:	=:|!|:	=:|!|:
*>C	*	*>C	*>C
4r	.	[4Fz/ [4fz/	.
=37	=37	=37	=37
*^	*	*	*
[2.AA-/	2.DD-\	fp	2F/] 2f/]	.
.	.	.	[4G-z/ [4g-z/	.
=38	=38	=38	=38	=38
2.AA-/_	2.EE-\	.	2G-/] 2g-/]	.
.	.	.	[4e-z/ [4ee-z/	.
=39	=39	=39	=39	=39
2.AA-/_	2.GG-\	.	(4e-/] 4ee-/]	.
.	.	.	4c/) 4cc/	.
.	.	.	4A-'/ 4a-'/	.
=40	=40	=40	=40	=40
2.AA-/]	2.FF\	.	(4d-/ 4dd-/	.
.	.	.	4f/) 4ff/	.
.	.	.	[4Fz/ [4fz/	.
=41	=41	=41	=41	=41
[2.AA-/	2.DD-\	fp	2F/] 2f/]	.
.	.	.	[4G-z/ 4g-z/	.
=42	=42	=42	=42	=42
2.AA-/_	2.EE-\	.	2G-/] 2g-/	.
.	.	.	[4g-z\ [4gg-z\	.
=43	=43	=43	=43	=43
*v	*v	*	*	*
2AAA-/ 2AA-/]	.	4g-\] (4gg-\]	.
.	.	4b-\ 4bb-\)	.
[4AA-\ 4AA-/	.	4c'/ 4cc'/	.
=44	=44	=44	=44
*^	*	*	*
2AA-/]	2DD-\	.	(4e-/ 4ee-/	.
.	.	.	4d-/) 4dd-/	.
*v	*v	*	*	*
=:|!|:	=:|!|:	=:|!|:	=:|!|:
*>D	*	*>D	*>D
4r	.	[4f/ [4ff/	pp
=45	=45	=45	=45
2.Dn\ 2.A-\	pp	2f/] 2ff/]	.
.	.	[4B-/ [4b-/	.
=46	=46	=46	=46
2.D-X\ 2.Gn\	.	2B-/] 2b-/]	.
.	.	[4e-/ [4ee-/	.
=47	=47	=47	=47
2.C\ 2.G-\	.	2e-/] 2ee-/]	.
.	.	[4A-/ [4a-/	.
=48	=48	=48	=48
(2.C-\ 2.F\	.	2A-/] 2a-/]	.
.	.	[4d-/ [4dd-/	.
=49	=49	=49	=49
*^	*	*	*
2.D-/	2.BB-\	fp	2d-/] 2dd-/]	.
.	.	.	[4G-/ [4g-/	.
=50	=50	=50	=50	=50
[2.D-/)	2.AA-\	.	2G-/] 2g-/]	.
.	.	.	[4F/ [4f/	.
=51	=51	=51	=51	=51
2.D-/_	(4DD-\	.	4F/] (4f/]	.
.	4FF\	.	4A-/ 4a-/)	.
.	4AA-\)	.	[4c-/ [4cc-/	.
=52	=52	=52	=52	=52
2.D-/]	2.GG-\	.	4c-/] (4cc-/]	.
.	.	.	4B-/ 4b-/)	.
.	.	.	[4d-/ [4dd-/	.
=53	=53	=53	=53	=53
[2.D-/	2.BB-\	fp	2d-/] 2dd-/]	.
.	.	.	[4G-/ [4g-/	.
=54	=54	=54	=54	=54
2.D-/_	2.AA-\	.	2G-/] 2g-/]	.
.	.	.	[4F/ [4f/	.
=55	=55	=55	=55	=55
2.D-/_	2.GGn\	.	2F/] 2f/]	.
.	.	.	[4En/ [4en/	.
=56	=56	=56	=56	=56
2.D-/]	2.AA-\	.	2E/] 2e/]	.
.	.	.	[4F/ [4f/	.
=57	=57	=57	=57	=57
[2.D-/	2.BB-\	.	2F/] 2f/]	.
.	.	.	[4G-/ [4g-/	.
=58	=58	=58	=58	=58
2.D-/]	[2.AA-\	.	2G-/] 2g-/]	.
.	.	.	[4F/ [4f/	.
*v	*v	*	*	*
=59	=59	=59	=59
2AAA-/ 2AA-/]	.	4F/] (4f/]	p
.	.	4G-/ 4g-/)	.
*^	*	*	*
4AA-'\	4C'/	.	4c'/	.
=60	=60	=60	=60	=60
4D-'/	4DD-'\	.	4d-'/	.
*v	*v	*	*	*
4r	.	4r	.
!! D.C. al Fine
==:|!	==:|!	==:|!	==:|!
*-	*-	*-	*-
!!!ENC: Craig Stuart Sapp
!!!END: 2008/10/18/
!!!hum2abc:  -s 0.67 --spacing 1.8
